X:13
T:Cherokee Shuffle 1
R:Hornpipe
C:Trad
S:From the playing of Hershel Sizemore
B:Mandolin World news vol V No IV winter 1980
M:2/4
L:1/8
Q:400
K:A
 FG!|A2 A2 A2 AA|cBAc BAFB|ABce cB A2|F2 FA F2 E=F|FAAB AFED|CFEF A2 AB|
cBAc BAGB|A2 AA A2 F2|A2 A2 A2 AB|cBAF EDCD|EFAc Bc A2|C2F2 CFCFC
2F2E=F|FAAB AFED|CFEF A2 AB|cBAc BAGB|A2 e2 A2||a=g!|fdfg afed|ceef e2
a=g|fdfg afed|ceaeaea e2a2 a=g|fdfg afed|ceef e2 af|eccB ABce|d
2f2dfdfd2f2 af|edcA BAGB|A2 Ae A2 a=g|fdfg afed| c2 f2 e2 a=g|fdf
g afed|ceef e2 a=g|fdfg afed| ceef e2af|edcB ABcA|d2f2dfdfd2f2 a
=g|edcA BAGB| A6||
